;FLAVOR:Marlin
;TIME:6666
;Filament used: 0m
;Layer height: 0.2
;MINX:2.14748e+06
;MINY:2.14748e+06
;MINZ:2.14748e+06
;MAXX:-2.14748e+06
;MAXY:-2.14748e+06
;MAXZ:-2.14748e+06
;TARGET_MACHINE.NAME:Unknown

;Generated with Cura_SteamEngine 5.12.0-alpha.0
M104 S215
M105
M109 S215
G28 ;Home
G1 Z15.0 F6000 ;Move the platform down 15mm
;Prime the extruder
G92 C0
G1 F200 C3
G92 C0
M82 ;absolute extrusion mode
G92 C0
G92 C0
G1 F1500 C-6.5
;LAYER_COUNT:244
;LAYER:0
M107
G0 F3600 X29.942 Y-29.8 Z0.3
;TYPE:SKIRT
G1 F1500 C0
G1 F1800 X31.999 Y-29.378 C0.0395
G1 X33.77 Y-28.383 C0.07771
G1 X34.768 Y-27.61 C0.10146
G1 X35.86 Y-26.257 C0.13416
G1 X36.846 Y-24.278 C0.17575
G1 X37.068 Y-22.754 C0.20472
G1 X37.12 Y22.622 C1.05827
G1 X36.698 Y24.679 C1.09777
G1 X35.703 Y26.45 C1.13598
G1 X34.93 Y27.448 C1.15973
G1 X33.577 Y28.54 C1.19243
G1 X31.598 Y29.526 C1.23402
G1 X30.074 Y29.748 C1.26299
G1 X-30.037 Y29.8 C2.39371
G1 X-32.038 Y29.361 C2.43225
G1 X-33.824 Y28.361 C2.47075
G1 X-34.767 Y27.622 C2.49329
G1 X-35.848 Y26.276 C2.52576
G1 X-36.846 Y24.26 C2.56808
G1 X-37.068 Y22.754 C2.59671
G1 X-37.12 Y-22.622 C3.45026
G1 X-36.698 Y-24.679 C3.48976
G1 X-35.703 Y-26.45 C3.52797
G1 X-34.93 Y-27.448 C3.55172
G1 X-33.577 Y-28.54 C3.58442
G1 X-31.598 Y-29.526 C3.62601
G1 X-30.074 Y-29.748 C3.65498
G1 X29.942 Y-29.8 C4.78392
G0 F3600 X29.901 Y-29.4
G1 F1800 X31.858 Y-28.998 C4.8215
G1 X33.525 Y-28.067 C4.85741
G1 X34.487 Y-27.322 C4.8803
G1 X35.521 Y-26.04 C4.91128
G1 X36.459 Y-24.158 C4.95084
G1 X36.672 Y-22.696 C4.97863
G1 X36.72 Y22.581 C5.83032
G1 X36.318 Y24.538 C5.8679
G1 X35.387 Y26.205 C5.90381
G1 X34.642 Y27.167 C5.9267
G1 X33.36 Y28.201 C5.95768
G1 X31.478 Y29.139 C5.99724
G1 X30.016 Y29.352 C6.02503
G1 X-29.992 Y29.4 C7.15381
G1 X-31.896 Y28.982 C7.19048
G1 X-33.577 Y28.046 C7.22667
G1 X-34.483 Y27.336 C7.24832
G1 X-35.512 Y26.055 C7.27923
G1 X-36.459 Y24.142 C7.31938
G1 X-36.672 Y22.696 C7.34688
G1 X-36.72 Y-22.581 C8.19856
G1 X-36.318 Y-24.538 C8.23615
G1 X-35.387 Y-26.205 C8.27206
G1 X-34.642 Y-27.167 C8.29495
G1 X-33.36 Y-28.201 C8.32593
G1 X-31.478 Y-29.139 C8.36549
G1 X-30.016 Y-29.352 C8.39328
G1 X29.901 Y-29.4 C9.52035
G0 F3600 X29.859 Y-29
G1 F1800 X31.717 Y-28.618 C9.55603
G1 X33.28 Y-27.751 C9.58965
G1 X34.206 Y-27.034 C9.61168
G1 X35.182 Y-25.823 C9.64094
G1 X36.072 Y-24.038 C9.67846
G1 X36.276 Y-22.638 C9.70507
G1 X36.32 Y22.539 C10.55488
G1 X35.938 Y24.397 C10.59056
G1 X35.071 Y25.96 C10.62418
G1 X34.354 Y26.886 C10.64621
G1 X33.143 Y27.862 C10.67546
G1 X31.358 Y28.752 C10.71298
G1 X29.958 Y28.956 C10.7396
G1 X-29.947 Y29 C11.86644
G1 X-31.753 Y28.603 C11.90123
G1 X-33.33 Y27.731 C11.93512
G1 X-34.199 Y27.05 C11.95589
G1 X-35.176 Y25.834 C11.98523
G1 X-36.072 Y24.024 C12.02322
G1 X-36.276 Y22.638 C12.04958
G1 X-36.32 Y-22.539 C12.89938
G1 X-35.938 Y-24.397 C12.93506
G1 X-35.071 Y-25.96 C12.96868
G1 X-34.354 Y-26.886 C12.99071
G1 X-33.143 Y-27.862 C13.01997
G1 X-31.358 Y-28.752 C13.05749
G1 X-29.958 Y-28.956 C13.0841
G1 X29.859 Y-29 C14.20929
G0 F3600 X29.817 Y-28.6
G1 F1800 X31.577 Y-28.238 C14.24309
G1 X33.086 Y-27.401 C14.27555
G1 X33.922 Y-26.749 C14.29549
G1 X34.845 Y-25.603 C14.32317
G1 X35.685 Y-23.918 C14.35859
G1 X35.88 Y-22.58 C14.38402
G1 X35.92 Y22.497 C15.23195
G1 X35.558 Y24.257 C15.26575
G1 X34.721 Y25.766 C15.29821
G1 X34.069 Y26.602 C15.31815
G1 X32.923 Y27.525 C15.34583
G1 X31.238 Y28.365 C15.38124
G1 X29.9 Y28.56 C15.40668
G1 X-29.902 Y28.6 C16.53159
G1 X-31.611 Y28.224 C16.5645
G1 X-33.083 Y27.416 C16.59609
G1 X-33.915 Y26.764 C16.61597
G1 X-34.837 Y25.617 C16.64366
G1 X-35.685 Y23.903 C16.67963
G1 X-35.88 Y22.58 C16.70478
G1 X-35.92 Y-22.497 C17.55271
G1 X-35.558 Y-24.257 C17.58651
G1 X-34.721 Y-25.766 C17.61897
G1 X-34.069 Y-26.602 C17.63891
G1 X-32.923 Y-27.525 C17.66659
G1 X-31.238 Y-28.365 C17.702
G1 X-29.9 Y-28.56 C17.72744
G1 X29.817 Y-28.6 C18.85075
G0 F3600 X29.775 Y-28.2
G1 F1800 X31.437 Y-27.858 C18.88267
G1 X32.892 Y-27.051 C18.91396
G1 X33.637 Y-26.465 C18.93179
G1 X34.508 Y-25.383 C18.95792
G1 X35.298 Y-23.798 C18.99123
G1 X35.484 Y-22.522 C19.01549
G1 X35.52 Y22.455 C19.86153
G1 X35.178 Y24.117 C19.89345
G1 X34.371 Y25.572 C19.92475
G1 X33.785 Y26.317 C19.94258
G1 X32.703 Y27.188 C19.96871
G1 X31.118 Y27.978 C20.00202
G1 X29.842 Y28.164 C20.02627
G1 X-29.857 Y28.2 C21.14925
G1 X-31.471 Y27.845 C21.18033
G1 X-32.836 Y27.101 C21.20958
G1 X-33.634 Y26.476 C21.22864
G1 X-34.499 Y25.399 C21.25463
G1 X-35.298 Y23.785 C21.2885
G1 X-35.484 Y22.522 C21.31252
G1 X-35.52 Y-22.455 C22.15856
G1 X-35.178 Y-24.117 C22.19048
G1 X-34.371 Y-25.572 C22.22177
G1 X-33.785 Y-26.317 C22.2396
G1 X-32.703 Y-27.188 C22.26573
G1 X-31.118 Y-27.978 C22.29905
G1 X-29.842 Y-28.164 C22.3233
G1 X29.775 Y-28.2 C23.44473
G0 F3600 X29.733 Y-27.8
G1 F1800 X31.297 Y-27.478 C23.47477
G1 X32.698 Y-26.701 C23.5049
G1 X33.352 Y-26.18 C23.52063
G1 X34.169 Y-25.165 C23.54514
G1 X34.911 Y-23.677 C23.57642
G1 X35.088 Y-22.464 C23.59948
G1 X35.12 Y22.413 C24.44364
G1 X34.798 Y23.977 C24.47367
G1 X34.021 Y25.378 C24.50381
G1 X33.5 Y26.032 C24.51954
G1 X32.485 Y26.849 C24.54405
G1 X30.997 Y27.591 C24.57533
G1 X29.784 Y27.768 C24.59838
G1 X-29.812 Y27.8 C25.71942
G1 X-31.331 Y27.466 C25.74867
G1 X-32.589 Y26.786 C25.77557
G1 X-33.35 Y26.19 C25.79376
G1 X-34.163 Y25.178 C25.81817
G1 X-34.911 Y23.667 C25.84989
G1 X-35.088 Y22.464 C25.87276
G1 X-35.12 Y-22.413 C26.71692
G1 X-34.798 Y-23.977 C26.74696
G1 X-34.021 Y-25.378 C26.7771
G1 X-33.5 Y-26.032 C26.79282
G1 X-32.485 Y-26.849 C26.81733
G1 X-30.997 Y-27.591 C26.84861
G1 X-29.784 Y-27.768 C26.87167
G1 X29.733 Y-27.8 C27.99122
G0 F3600 X29.691 Y-27.4
G1 F1800 X31.158 Y-27.098 C28.01939
G1 X32.449 Y-26.388 C28.04711
G1 X33.066 Y-25.896 C28.06195
G1 X33.832 Y-24.945 C28.08492
G1 X34.524 Y-23.557 C28.11409
G1 X34.692 Y-22.406 C28.13597
G1 X34.72 Y22.371 C28.97826
G1 X34.418 Y23.838 C29.00643
G1 X33.708 Y25.129 C29.03414
G1 X33.216 Y25.746 C29.04899
G1 X32.265 Y26.512 C29.07196
G1 X30.877 Y27.204 C29.10113
G1 X29.726 Y27.372 C29.12301
G1 X-29.767 Y27.4 C30.24211
G1 X-31.19 Y27.087 C30.26952
G1 X-32.342 Y26.471 C30.29409
G1 X-33.066 Y25.904 C30.31139
G1 X-33.827 Y24.957 C30.33424
G1 X-34.524 Y23.549 C30.36379
G1 X-34.692 Y22.406 C30.38552
G1 X-34.72 Y-22.371 C31.2278
G1 X-34.418 Y-23.838 C31.25598
G1 X-33.708 Y-25.129 C31.28369
G1 X-33.216 Y-25.746 C31.29854
G1 X-32.265 Y-26.512 C31.32151
G1 X-30.877 Y-27.204 C31.35068
G1 X-29.726 Y-27.372 C31.37256
G1 X29.691 Y-27.4 C32.49023
G0 F3600 X29.649 Y-27
G1 F1800 X31.02 Y-26.718 C32.51656
G1 X32.2 Y-26.075 C32.54184
G1 X32.783 Y-25.61 C32.55586
G1 X33.493 Y-24.729 C32.57715
G1 X34.137 Y-23.437 C32.6043
G1 X34.296 Y-22.348 C32.625
G1 X34.32 Y22.329 C33.4654
G1 X34.038 Y23.7 C33.49173
G1 X33.395 Y24.88 C33.51701
G1 X32.93 Y25.463 C33.53104
G1 X32.049 Y26.173 C33.55232
G1 X30.757 Y26.817 C33.57948
G1 X29.668 Y26.976 C33.60018
G1 X-29.722 Y27 C34.71734
G1 X-31.05 Y26.708 C34.74292
G1 X-32.153 Y26.118 C34.76645
G1 X-32.781 Y25.619 C34.78153
G1 X-33.491 Y24.736 C34.80285
G1 X-34.137 Y23.431 C34.83024
G1 X-34.296 Y22.348 C34.85083
G1 X-34.32 Y-22.329 C35.69123
G1 X-34.038 Y-23.7 C35.71756
G1 X-33.395 Y-24.88 C35.74283
G1 X-32.93 Y-25.463 C35.75686
G1 X-32.049 Y-26.173 C35.77815
G1 X-30.757 Y-26.817 C35.8053
G1 X-29.668 Y-26.976 C35.826
G1 X29.649 Y-27 C36.94179
G0 F3600 X29.607 Y-26.6
G1 F1800 X30.882 Y-26.338 C36.96627
G1 X31.951 Y-25.762 C36.98911
G1 X32.498 Y-25.326 C37.00227
G1 X33.156 Y-24.509 C37.02201
G1 X33.75 Y-23.317 C37.04706
G1 X33.9 Y-22.29 C37.06658
G1 X33.92 Y22.287 C37.9051
G1 X33.658 Y23.562 C37.92958
G1 X33.082 Y24.631 C37.95243
G1 X32.646 Y25.178 C37.96558
G1 X31.829 Y25.836 C37.98532
G1 X30.637 Y26.43 C38.01037
G1 X29.61 Y26.58 C38.02989
G1 X-29.677 Y26.6 C39.14511
G1 X-30.91 Y26.329 C39.16886
G1 X-31.964 Y25.765 C39.19135
G1 X-32.495 Y25.336 C39.20419
G1 X-33.155 Y24.515 C39.224
G1 X-33.75 Y23.313 C39.24923
G1 X-33.9 Y22.29 C39.26868
G1 X-33.92 Y-22.287 C40.1072
G1 X-33.658 Y-23.562 C40.13168
G1 X-33.082 Y-24.631 C40.15453
G1 X-32.646 Y-25.178 C40.16768
G1 X-31.829 Y-25.836 C40.18742
G1 X-30.637 Y-26.43 C40.21247
G1 X-29.61 Y-26.58 C40.23199
G1 X29.607 Y-26.6 C41.3459
G0 F3600 X29.566 Y-26.2
G1 F1800 X30.744 Y-25.958 C41.36852
G1 X31.761 Y-25.41 C41.39025
G1 X32.211 Y-25.044 C41.40116
G1 X32.819 Y-24.289 C41.41939
G1 X33.363 Y-23.197 C41.44234
G1 X33.504 Y-22.232 C41.46069
G1 X33.52 Y22.246 C42.29734
G1 X33.278 Y23.424 C42.31997
G1 X32.73 Y24.441 C42.3417
G1 X32.364 Y24.891 C42.35261
G1 X31.609 Y25.499 C42.37084
G1 X30.517 Y26.043 C42.39379
G1 X29.552 Y26.184 C42.41214
G1 X-29.632 Y26.2 C43.52542
G1 X-30.77 Y25.95 C43.54734
G1 X-31.742 Y25.43 C43.56807
G1 X-32.209 Y25.052 C43.57937
G1 X-32.819 Y24.294 C43.59768
G1 X-33.363 Y23.195 C43.62074
G1 X-33.504 Y22.232 C43.63905
G1 X-33.52 Y-22.246 C44.47571
G1 X-33.278 Y-23.424 C44.49833
G1 X-32.73 Y-24.441 C44.52006
G1 X-32.364 Y-24.891 C44.53097
G1 X-31.609 Y-25.499 C44.5492
G1 X-30.517 Y-26.043 C44.57215
G1 X-29.552 Y-26.184 C44.5905
G1 X29.566 Y-26.2 C45.70254
G0 F3600 X29.525 Y-25.8
G1 F1800 X30.606 Y-25.578 C45.7233
G1 X31.514 Y-25.095 C45.74265
G1 X31.899 Y-24.793 C45.75185
G1 X32.482 Y-24.069 C45.76933
G1 X32.976 Y-23.077 C45.79018
G1 X33.108 Y-22.174 C45.80735
G1 X33.12 Y22.205 C46.64214
G1 X32.898 Y23.286 C46.6629
G1 X32.415 Y24.194 C46.68225
G1 X32.113 Y24.579 C46.69145
G1 X31.389 Y25.162 C46.70894
G1 X30.397 Y25.656 C46.72978
G1 X29.494 Y25.788 C46.74695
G1 X-29.587 Y25.8 C47.85829
G1 X-30.63 Y25.571 C47.87838
G1 X-31.553 Y25.077 C47.89807
G1 X-31.922 Y24.77 C47.9071
G1 X-32.481 Y24.075 C47.92388
G1 X-32.976 Y23.076 C47.94485
G1 X-33.108 Y22.174 C47.962
G1 X-33.12 Y-22.205 C48.79679
G1 X-32.898 Y-23.286 C48.81755
G1 X-32.415 Y-24.194 C48.8369
G1 X-32.113 Y-24.579 C48.8461
G1 X-31.389 Y-25.162 C48.86359
G1 X-30.397 Y-25.656 C48.88443
G1 X-29.494 Y-25.788 C48.9016
G1 X29.525 Y-25.8 C50.01178
G0 F3600 X29.484 Y-25.4
G1 F1800 X30.47 Y-25.198 C50.03071
G1 X31.275 Y-24.774 C50.04783
G1 X31.587 Y-24.542 C50.05514
G1 X32.145 Y-23.849 C50.07188
G1 X32.589 Y-22.957 C50.09062
G1 X32.712 Y-22.116 C50.10661
G1 X32.72 Y22.164 C50.93954
G1 X32.518 Y23.15 C50.95847
G1 X32.094 Y23.955 C50.97559
G1 X31.862 Y24.267 C50.9829
G1 X31.169 Y24.825 C50.99964
G1 X30.277 Y25.269 C51.01838
G1 X29.436 Y25.392 C51.03437
G1 X-29.542 Y25.4 C52.14378
G1 X-30.49 Y25.192 C52.16203
G1 X-31.364 Y24.724 C52.18068
G1 X-31.61 Y24.519 C52.1867
G1 X-32.143 Y23.856 C52.20271
G1 X-32.589 Y22.957 C52.22158
G1 X-32.712 Y22.116 C52.23757
G1 X-32.72 Y-22.164 C53.0705
G1 X-32.518 Y-23.15 C53.08944
G1 X-32.094 Y-23.955 C53.10655
G1 X-31.862 Y-24.267 C53.11386
G1 X-31.169 Y-24.825 C53.1306
G1 X-30.277 Y-25.269 C53.14934
G1 X-29.436 Y-25.392 C53.16533
G1 X29.484 Y-25.4 C54.27365
G0 F3600 X29.443 Y-25
G1 F1800 X30.333 Y-24.818 C54.29074
G1 X31.088 Y-24.42 C54.30679
G1 X31.308 Y-24.251 C54.31201
G1 X31.806 Y-23.633 C54.32694
G1 X32.202 Y-22.837 C54.34366
G1 X32.316 Y-22.058 C54.35847
G1 X32.32 Y22.123 C55.18954
G1 X32.138 Y23.013 C55.20663
G1 X31.74 Y23.768 C55.22268
G1 X31.571 Y23.988 C55.2279
G1 X30.953 Y24.486 C55.24283
G1 X30.157 Y24.882 C55.25956
G1 X29.378 Y24.996 C55.27437
G1 X-29.497 Y25 C56.38184
G1 X-30.35 Y24.813 C56.39826
G1 X-31.175 Y24.371 C56.41587
G1 X-31.298 Y24.268 C56.41889
G1 X-31.805 Y23.637 C56.43411
G1 X-32.202 Y22.837 C56.45091
G1 X-32.316 Y22.058 C56.46572
G1 X-32.32 Y-22.123 C57.29679
G1 X-32.138 Y-23.013 C57.31388
G1 X-31.74 Y-23.768 C57.32993
G1 X-31.571 Y-23.988 C57.33515
G1 X-30.953 Y-24.486 C57.35008
G1 X-30.157 Y-24.882 C57.36681
G1 X-29.378 Y-24.996 C57.38161
G1 X29.443 Y-25 C58.48807
G0 F3600 X29.402 Y-24.6
G1 F1800 X30.198 Y-24.437 C58.50335
G1 X30.902 Y-24.066 C58.51832
G1 X31.027 Y-23.963 C58.52137
G1 X31.467 Y-23.417 C58.53456
G1 X31.815 Y-22.717 C58.54927
G1 X31.92 Y-22 C58.5629
G1 X31.92 Y22.082 C59.3921
G1 X31.757 Y22.878 C59.40739
G1 X31.386 Y23.582 C59.42236
G1 X31.283 Y23.707 C59.4254
G1 X30.737 Y24.147 C59.43859
G1 X30.037 Y24.495 C59.4533
G1 X29.32 Y24.6 C59.46693
G1 X-29.452 Y24.6 C60.57246
G1 X-30.21 Y24.434 C60.58706
G1 X-30.986 Y24.018 C60.60362
G1 X-31.466 Y23.42 C60.61805
G1 X-31.815 Y22.717 C60.63281
G1 X-31.92 Y22 C60.64644
G1 X-31.92 Y-22.082 C61.47565
G1 X-31.757 Y-22.878 C61.49093
G1 X-31.386 Y-23.582 C61.5059
G1 X-31.283 Y-23.707 C61.50895
G1 X-30.737 Y-24.147 C61.52214
G1 X-30.037 Y-24.495 C61.53684
G1 X-29.32 Y-24.6 C61.55047
G1 X29.402 Y-24.6 C62.65507
G0 F3600 X29.361 Y-24.2
G1 F1800 X30.063 Y-24.056 C62.66855
G1 X30.716 Y-23.712 C62.68243
G1 X31.128 Y-23.201 C62.69478
G1 X31.429 Y-22.595 C62.70751
G1 X31.52 Y-22 C62.71883
G1 X31.52 Y22.041 C63.54726
G1 X31.376 Y22.743 C63.56074
G1 X31.032 Y23.396 C63.57463
G1 X30.521 Y23.808 C63.58697
G1 X29.915 Y24.109 C63.5997
G1 X29.32 Y24.2 C63.61102
G1 X-29.407 Y24.2 C64.71571
G1 X-30.073 Y24.054 C64.72854
G1 X-30.723 Y23.705 C64.74242
G1 X-31.128 Y23.201 C64.75458
G1 X-31.429 Y22.595 C64.76731
G1 X-31.52 Y22 C64.77863
G1 X-31.52 Y-22.041 C65.60706
G1 X-31.376 Y-22.743 C65.62054
G1 X-31.032 Y-23.396 C65.63443
G1 X-30.521 Y-23.808 C65.64677
G1 X-29.915 Y-24.109 C65.6595
G1 X-29.32 Y-24.2 C65.67082
G1 X29.361 Y-24.2 C66.77465
G0 F3600 X29.32 Y-23.8
G1 F1800 X29.926 Y-23.676 C66.78628
G1 X30.458 Y-23.395 C66.7976
G1 X30.77 Y-23.023 C66.80673
G1 X31.043 Y-22.474 C66.81827
G1 X31.12 Y-22 C66.8273
G1 X31.12 Y22 C67.65496
G1 X30.996 Y22.606 C67.6666
G1 X30.715 Y23.138 C67.67792
G1 X30.343 Y23.45 C67.68705
G1 X29.794 Y23.723 C67.69858
G1 X29.32 Y23.8 C67.70762
G1 X-29.362 Y23.8 C68.81146
G1 X-29.936 Y23.674 C68.82251
G1 X-30.461 Y23.392 C68.83372
G1 X-30.77 Y23.023 C68.84277
G1 X-31.043 Y22.474 C68.85431
G1 X-31.12 Y22 C68.86334
G1 X-31.12 Y-22 C69.69101
G1 X-30.996 Y-22.606 C69.70264
G1 X-30.715 Y-23.138 C69.71396
G1 X-30.343 Y-23.45 C69.72309
G1 X-29.794 Y-23.723 C69.73462
G1 X-29.32 Y-23.8 C69.74366
G1 X29.32 Y-23.8 C70.84671
G0 F3600 X29.32 Y-23.4
G1 F1800 X29.739 Y-23.322 C70.85473
G1 X30.203 Y-23.077 C70.8646
G1 X30.412 Y-22.845 C70.87047
G1 X30.658 Y-22.351 C70.88085
G1 X30.72 Y-22 C70.88755
G1 X30.72 Y22 C71.71522
G1 X30.642 Y22.419 C71.72324
G1 X30.397 Y22.883 C71.73311
G1 X30.165 Y23.092 C71.73898
G1 X29.671 Y23.338 C71.74936
G1 X29.32 Y23.4 C71.75607
G1 X-29.362 Y23.4 C72.85991
G1 X-29.843 Y23.285 C72.86921
G1 X-30.203 Y23.077 C72.87703
G1 X-30.412 Y22.845 C72.8829
G1 X-30.658 Y22.351 C72.89329
G1 X-30.72 Y22 C72.89999
G1 X-30.72 Y-22 C73.72765
G1 X-30.642 Y-22.419 C73.73567
G1 X-30.397 Y-22.883 C73.74554
G1 X-30.165 Y-23.092 C73.75142
G1 X-29.671 Y-23.338 C73.7618
G1 X-29.32 Y-23.4 C73.7685
G1 X29.32 Y-23.4 C74.87155
G0 F3600 X29.32 Y-23
G1 F1800 X29.658 Y-22.93 C74.87804
G1 X29.921 Y-22.793 C74.88362
G1 X30.06 Y-22.655 C74.88731
G1 X30.266 Y-22.273 C74.89547
G1 X30.32 Y-22 C74.90071
G1 X30.32 Y22 C75.72837
G1 X30.25 Y22.338 C75.73486
G1 X30.113 Y22.601 C75.74044
G1 X29.975 Y22.74 C75.74413
G1 X29.593 Y22.946 C75.75229
G1 X29.32 Y23 C75.75752
G1 X-29.32 Y23 C76.86058
G1 X-29.658 Y22.93 C76.86707
G1 X-29.921 Y22.793 C76.87265
G1 X-30.06 Y22.655 C76.87633
G1 X-30.266 Y22.273 C76.88449
G1 X-30.32 Y22 C76.88973
G1 X-30.32 Y-22 C77.71739
G1 X-30.25 Y-22.338 C77.72389
G1 X-30.113 Y-22.601 C77.72947
G1 X-29.975 Y-22.74 C77.73315
G1 X-29.593 Y-22.946 C77.74131
G1 X-29.32 Y-23 C77.74655
G1 X29.32 Y-23 C78.8496
G0 F3600 X29.32 Y-22.2
G1 F1800 X29.439 Y-22.161 C78.85195
G1 X29.52 Y-22 C78.85535
G1 X29.52 Y22 C79.68301
G1 X29.481 Y22.119 C79.68537
G1 X29.32 Y22.2 C79.68876
G1 X-29.32 Y22.2 C80.79181
G1 X-29.439 Y22.161 C80.79416
G1 X-29.52 Y22 C80.79755
G1 X-29.52 Y-22 C81.62522
G1 X-29.481 Y-22.119 C81.62757
G1 X-29.32 Y-22.2 C81.63096
G1 X29.32 Y-22.2 C82.73401
G0 F3600 X29.32 Y-22.6
G1 F1800 X29.564 Y-22.541 C82.73874
G1 X29.716 Y-22.45 C82.74207
G1 X29.877 Y-22.18 C82.74798
G1 X29.92 Y-22 C82.75146
G1 X29.92 Y22 C83.57913
G1 X29.861 Y22.244 C83.58385
G1 X29.77 Y22.396 C83.58718
G1 X29.5 Y22.557 C83.59309
G1 X29.32 Y22.6 C83.59658
G1 X-29.32 Y22.6 C84.69963
G1 X-29.564 Y22.541 C84.70435
G1 X-29.716 Y22.45 C84.70768
G1 X-29.877 Y22.18 C84.71359
G1 X-29.92 Y22 C84.71708
G1 X-29.92 Y-22 C85.54474
